X:3
T:紫竹调 (Purple Bamboo Melody)
C:江苏民歌
M:2/4
L:1/8
Q:1/4=80
%%barnumbers 0
V:1 clef=treble
K:Fmaj
%%visualtranspose -10_of_semitones
%%jianpu 1
[V:1] c2 f2 | (dc) A2 | (Ac) (AG) | F4 | df Ac | d2 A2 |
c4- | c4 | (fd) Ad | c4 | (dc)Ad | c4 |
c2 f2 | (dc) A2 | (cG) (AG) | F4 | F2 (FA) | G4 |
dfdf | g2 d2 | c4 | F2 (FA) | G4 | dfdf |
g2 d2 | (c3 d) | (GAcd | c4-) | c4 |]

